X: 1
T: Miss Ross
R: strathspey
Z: John Chambers <jc:trillian.mit.edu>
M: C
L: 1/8
K: Bb
G \
| "Bb"F2 F>G F>G B>d | "Eb"c>B d>B "F7"c>B (G<B) \
|  "Bb"F2 F>G "Gm"F>G B>g | "Bb"(fd "F7"c2 "Bb"B :|
e \
| "Bb"(d<f) f>g "Gm"(3fga b>d | "Cm"c>B d>B "F7"c>B (G<e) \
| "Bb"(d<f) f>g "Gm"(3fga b>d | "Cm"c>B e>d "F7"c2 "Bb"B>e |
| "Bb"(d<f) f>g "Gm"(3fga b>d | "Cm"c>B d>B "F7"c>B (G<e) \
| "Bb"F>B D>B "Gm"F>G B>g | "Bb"(fd "F7"c2 "Bb"B |]
